docs/files/assets/villain.svg

<?xml version="1.0" encoding="UTF-8" standalone="yes"?>
<!DOCTYPE svg PUBLIC "-//W3C//DTD SVG 1.1//EN" "http://www.w3.org/Graphics/SVG/1.1/DTD/svg11.dtd">

<!-- Credit: "Villain" by JJ
     https://commons.wikimedia.org/wiki/File:Villainc.svg -->

<svg xmlns="http://www.w3.org/2000/svg" xmlns:svg="http://www.w3.org/2000/svg" version="1.1" width="253" height="346">
  <rect width="253" height="346" fill="#ad1210" />
  <path
     d="M 253.07003,162.91458 C 253.07003,230.81487 198.02597,285.85894 130.12569,285.85894 C 62.225392,285.85894 7.1813299,230.81487 7.1813299,162.91458 C 7.1813299,95.014282 62.225392,39.970232 130.12568,39.970232 C 198.02597,39.970232 253.07003,95.014282 253.07003,162.91458 L 253.07003,162.91458 z "
     style="color:#000000;fill:#ce302f;fill-opacity:1;fill-rule:evenodd;stroke:none;visibility:visible;display:inline;overflow:visible"
     id="path5318" />
  <path
     d="M 226.70947,345.56416 C 226.70947,345.56416 226.70947,327.03182 226.70947,322.64808 C 226.70947,318.26435 230.11904,320.69976 232.06737,316.8031 C 234.0157,312.90645 244.24441,259.32746 227.19655,232.05089 C 210.14869,204.77432 190.66543,200.87766 167.28551,207.69681 C 143.90559,214.51595 120.52567,275.40116 120.52567,275.40116 C 120.52567,275.40116 89.83952,286.60404 83.50746,295.85859 C 77.1754,305.11314 68.46936,320.84475 76.54565,328.92105 C 84.15426,336.52966 86.97641,330.92847 86.97641,330.92847 C 88.52629,330.75626 89.12113,332.0185 90.49881,332.0185 C 92.59383,332.0185 92.76201,331.07113 95.19742,331.07113 C 97.63283,331.07113 96.17158,345.56416 96.17158,345.56416"
     style="fill:#000000;fill-opacity:1;fill-rule:evenodd;stroke:#000000;stroke-width:1px;stroke-linecap:butt;stroke-linejoin:miter;stroke-opacity:1"
     id="path1786" />
  <path
     d="M 156.02305,147.48336 C 156.02305,147.48336 160.43718,135.6964 170.66264,135.6964 C 180.8881,135.6964 183.51776,150.34689 183.57901,157.84265 C 183.63244,164.83901 180.34991,177.13641 166.35718,177.13641"
     style="fill:#f6f2e0;fill-opacity:1;fill-rule:evenodd;stroke:#000000;stroke-width:3;stroke-linecap:butt;stroke-linejoin:miter;stroke-opacity:1"
     id="path1766" />
  <path
     d="M 96.32486,213.44821 L 95.65897,224.76846 L 136.94458,242.08178 C 136.94458,242.08178 154.34381,232.02891 159.58507,187.47823 C 160.91686,176.15798 128.97798,167.03212 128.97798,170.3616 C 128.97798,191.04732 116.30177,212.11642 96.32486,213.44821 z "
     style="fill:#ffffff;fill-opacity:1;fill-rule:evenodd;stroke:none"
     id="path1820" />
  <path
     d="M 99.08443,148.61277 L 86.58716,154.43934 L 85.41444,184.73877 L 95.31715,194.35824 C 95.31715,194.35824 95.85534,209.96552 91.0117,213.19461 C 86.16806,216.4237 117.01036,217.44725 122.76443,195.97278 C 128.49818,174.57414 132.05553,169.17436 140.68633,170.25073 C 144.57423,170.7356 140.25059,165.09499 158.79531,179.4893 C 163.30155,207.41122 141.06263,241.71826 137.29535,241.71826 C 130.83717,240.64189 94.03039,223.60614 94.03039,223.60614 C 91.40818,227.53946 89.90079,228.67183 78.89259,231.67886 C 62.58032,236.13476 67.86987,251.94372 74.32805,256.78736 C 80.78624,261.63099 93.16442,267.01281 101.77534,264.3219 C 110.38625,261.63099 147.52081,244.40917 153.97899,244.40917 C 160.43718,244.40917 165.28082,244.22632 167.97173,239.56553 C 169.57669,236.78566 163.90864,223.26309 165.73821,178.7236 C 166.3631,163.66746 151.28808,145.92186 150.7499,126.00912 C 150.34175,110.90714 85.62988,122.24185 85.62988,122.24185 L 99.08443,148.61277 z "
     style="fill:#f4f1de;fill-opacity:1;fill-rule:evenodd;stroke:#000000;stroke-width:3;stroke-linecap:butt;stroke-linejoin:miter;stroke-opacity:1"
     id="path1764" />
  <path
     d="M 96.43744,204.03258 C 96.43744,203.34375 107.71744,184.54316 115.83594,175.9538 C 122.55946,168.84032 111.50392,175.71485 111.50392,175.71485 L 96.78186,194.02699 L 96.43744,204.03258 z "
     style="fill:#d0caa6;fill-opacity:1;fill-rule:evenodd;stroke:none"
     id="path1792" />
  <path
     d="M 135.9017,132.48502 C 135.9017,132.48502 147.72738,136.23666 144.85659,146.9506 C 143.2476,152.95543 138.31264,160.72736 126.6024,160.03852 C 115.67548,159.39576 138.31263,155.90549 135.9017,132.48502 z "
     style="fill:#d1caa9;fill-opacity:1;fill-rule:evenodd;stroke:none"
     id="path1794" />
  <path
     d="M 88.37191,127.97267 C 88.37191,127.97267 146.53895,131.53606 148.60547,130.15838 C 150.67198,128.78071 148.30078,124.52849 148.30078,124.52849 L 86.64982,122.11755 L 88.37191,127.97267 z "
     style="fill:#d0cbad;fill-opacity:1;fill-rule:evenodd;stroke:none"
     id="path1796" />
  <path
     d="M 45.50365,111.40064 C 45.50365,111.40064 46.05947,103.07673 47.30272,102.66232 C 48.84478,102.1483 76.85882,116.02682 92.79342,117.05486 C 87.1392,103.17634 85.08313,52.03143 100.76072,9.11082 C 128.42672,12.60023 159.47669,22.61585 193.91061,29.54697 C 194.98356,29.76294 197.13616,32.12865 195.39023,33.28016 C 188.62506,45.30962 152.57836,69.26315 151.64862,117.41017 C 167.23157,115.88343 180.80916,108.21725 184.22807,108.10792 C 184.91076,108.08609 186.05949,109.25779 185.28063,110.57964 C 179.62643,121.63106 179.93175,123.6767 179.93175,123.6767 C 179.12448,124.61851 178.63336,125.05655 177.70915,125.11407 C 165.02982,125.90321 71.37491,131.04363 45.50365,111.40064 z "
     style="fill:#000000;fill-opacity:1;fill-rule:evenodd;stroke:#000000;stroke-width:1px;stroke-linecap:butt;stroke-linejoin:miter;stroke-opacity:1"
     id="path1756" />
  <path
     d="M 88.32078,179.28914 C 106.20355,154.49185 116.84444,161.34798 116.84444,173.90732 C 105.54262,179.28914 80.24806,216.96188 80.24806,216.96188 C 69.75922,210.07858 65.17896,202.9005 65.17896,184.13278 C 64.64078,155.60913 100.69898,149.68913 100.69898,149.68913 C 100.69898,149.68913 97.46988,138.92549 99.62261,136.23458"
     style="fill:#f4f1de;fill-opacity:1;fill-rule:evenodd;stroke:#000000;stroke-width:3;stroke-linecap:round;stroke-linejoin:round;stroke-opacity:1"
     id="path1758" />
  <path
     d="M 125.80039,187.86194 L 142.39443,230.27507"
     style="fill:none;stroke:#000000;stroke-width:3.20000005;stroke-linecap:round;stroke-linejoin:miter;stroke-miterlimit:4;stroke-dasharray:none;stroke-opacity:1"
     id="path1770" />
  <path
     d="M 119.53534,203.49279 C 119.53534,203.49279 119.40763,229.75053 120.73943,233.08002"
     style="fill:none;stroke:black;stroke-width:2.5;stroke-linecap:round;stroke-linejoin:miter;stroke-miterlimit:4;stroke-dasharray:none;stroke-opacity:1"
     id="path1772" />
  <path
     d="M 107.56594,212.6761 C 107.85099,216.66665 107.18741,226.28977 107.18741,226.28977"
     style="fill:none;stroke:#000000;stroke-width:2.5;stroke-linecap:round;stroke-linejoin:miter;stroke-miterlimit:4;stroke-dasharray:none;stroke-opacity:1"
     id="path1774" />
  <path
     d="M 96.70158,214.80916 C 96.70158,218.26655 94.17238,225.30242 94.17238,225.30242"
     style="fill:none;stroke:#000000;stroke-width:4;stroke-linecap:butt;stroke-linejoin:miter;stroke-opacity:1"
     id="path1776" />
  <path
     d="M 106.6658,149.30826 C 106.6658,149.30826 109.92966,159.01347 120.99029,159.5665 C 129.29381,159.98167 140.95375,151.52038 139.84769,142.11884 C 138.74162,132.71731 134.31738,129.39911 124.91583,131.05821"
     style="fill:#ffffff;fill-opacity:1;fill-rule:evenodd;stroke:#000000;stroke-width:3.39999914;stroke-linecap:butt;stroke-linejoin:miter;stroke-miterlimit:4;stroke-dasharray:none;stroke-opacity:1"
     id="path1778" />
  <path
     d="M 116.30625,166.37277 C 116.30625,166.37277 143.95027,149.93803 172.81536,185.74732 C 195.18519,213.49875 215.58327,194.45765 215.58327,184.34919 C 215.58327,168.99999 189.96696,166.35957 189.96696,189.5146 C 186.19969,192.74369 182.32134,169.63697 204.3868,169.63697 C 221.13663,169.63697 221.36768,188.02786 215.33175,198.48239 C 209.5849,208.43623 187.26098,221.55778 166.35719,193.82005 C 138.37172,156.68549 116.91143,175.04427 116.91143,175.04427 L 116.30625,166.37277 z "
     style="fill:#040100;fill-opacity:1;fill-rule:evenodd;stroke:#000000;stroke-width:1px;stroke-linecap:butt;stroke-linejoin:miter;stroke-opacity:1"
     id="path1780" />
  <path
     d="M 66.57919,201.07581 C 66.57919,201.07581 54.77925,209.598 49.53482,219.10351 C 45.70505,226.04495 32.02053,236.66128 20.36274,225.00349 C 9.32246,213.96321 25.93493,189.27587 40.02931,200.09249 C 37.52527,202.01016 29.09353,196.21975 23.6405,205.66468 C 20.26186,211.51666 19.04694,224.67571 30.5238,224.67571 C 45.62103,224.67571 41.01263,205.3369 64.61253,188.62031"
     style="fill:#010101;fill-opacity:1;fill-rule:evenodd;stroke:#000000;stroke-width:1px;stroke-linecap:butt;stroke-linejoin:miter;stroke-opacity:1"
     id="path1782" />
  <path
     d="M 132.98911,140.41276 C 130.48667,140.56331 129.28072,143.4692 130.86325,144.87214 C 133.05702,146.81694 134.96507,145.09974 135.27954,144.16974 C 136.04957,141.89245 135.37529,140.26923 132.98911,140.41276 z "
     style="fill:#000000;fill-opacity:1;fill-rule:evenodd;stroke:none"
     id="path1784" />
  <path
     d="M 80.96691,260.09164 C 78.9004,257.33629 75.11179,249.41519 84.92773,243.38786"
     style="fill:none;stroke:#000000;stroke-width:3;stroke-linecap:round;stroke-linejoin:miter;stroke-miterlimit:4;stroke-dasharray:none;stroke-opacity:1"
     id="path1788" />
  <path
     d="M 159.32218,125.94106 L 157.25567,144.53968 L 153.81148,146.26177 L 148.98962,125.59665 L 159.32218,125.94106 z "
     style="fill:#000000;fill-opacity:1;fill-rule:evenodd;stroke:none"
     id="path1790" />
  <path
     d="M 63.34907,129.22355 C 60.2738,123.89703 86.3688,109.73263 90.71933,125.96903 C 94.41309,139.75431 94.33662,146.19286 104.21517,146.60619 C 114.45448,147.03462 124.53588,124.21897 126.6024,124.56339 C 128.66891,124.90781 130.73542,128.00757 126.94681,131.10734 C 123.1582,134.20711 113.42313,151.50772 102.49308,150.05038 C 92.16052,148.67271 86.68551,123.3857 78.36978,122.31389 C 67.2469,120.88026 64.893,131.89772 63.34907,129.22355 z "
     style="fill:#000000;fill-opacity:1;fill-rule:evenodd;stroke:#000000;stroke-width:1px;stroke-linecap:butt;stroke-linejoin:miter;stroke-opacity:1"
     id="path1798" />
  <path
     d="M 84.63834,155.19969 C 84.63834,155.19969 71.73571,148.2705 80.69587,137.63777 C 89.65603,127.00505 89.65603,132.1422 89.65603,132.1422 C 92.64275,140.26609 99.81088,149.34572 99.81088,149.34572 L 84.63834,155.19969 z "
     style="fill:#ffffff;fill-opacity:1;fill-rule:evenodd;stroke:#000000;stroke-width:3;stroke-linecap:butt;stroke-linejoin:miter;stroke-opacity:1"
     id="path1800" />
  <path
     d="M 93.35956,142.77493 C 94.37696,141.2997 98.13832,146.59793 97.42151,147.79262 C 96.82417,148.50943 86.90825,149.82359 93.35956,142.77493 z "
     style="fill:#000000;fill-opacity:1;fill-rule:evenodd;stroke:none"
     id="path1802" />
  <path
     d="M 166.9009,166.47712 C 166.9009,166.47712 177.37607,167.15293 177.71398,155.66403 C 178.05189,144.17513 170.9558,142.48559 170.9558,142.48559 C 170.9558,142.48559 161.49436,144.85095 164.19763,150.5954 C 166.9009,156.33985 171.29371,157.01567 170.27999,160.73266 C 169.26626,164.44966 167.57672,166.81502 166.9009,166.47712 z "
     style="fill:#d1caac;fill-opacity:1;fill-rule:evenodd;stroke:none"
     id="path1804" />
  <path
     d="M 164.41486,168.01165 C 164.41486,168.01165 175.46957,161.05649 166.778,153.99459 C 158.16708,146.99822 169.58627,140.00185 174.42991,143.23094"
     style="fill:none;stroke:#000000;stroke-width:3;stroke-linecap:round;stroke-linejoin:miter;stroke-opacity:1"
     id="path1768" />
  <path
     d="M 125.99863,269.2572 C 125.99863,269.2572 134.26492,271.7455 135.36874,274.22909 C 138.42836,281.11325 133.26525,289.71846 133.07402,293.73422 C 132.88279,297.74998 137.47223,317.63756 133.45647,317.82879 C 129.44071,318.02001 125.61618,320.31474 125.23372,314.57793 C 124.85127,308.84113 95.40235,314.96039 95.40235,314.96039 L 86.79715,276.48473 C 86.79715,276.48473 111.08295,265.62389 125.99863,269.2572 z "
     style="fill:#f5f2de;fill-opacity:1;fill-rule:evenodd;stroke:#000000;stroke-width:3;stroke-linecap:butt;stroke-linejoin:miter;stroke-opacity:1"
     id="path1808" />
  <path
     d="M 96.74094,321.4621 C 96.74094,321.4621 81.82526,291.63073 79.14808,285.32025 C 76.47091,279.00976 100.87499,267.53616 109.93559,267.53616 C 126.54806,267.53616 127.14599,266.88461 127.14599,275.37646 C 127.14599,286.28039 117.9337,274.1135 100.37425,278.81854 C 89.779,281.65753 89.33285,280.90642 91.38659,288.5711 C 94.69012,300.90006 97.61864,291.29554 107.83209,289.33601 C 122.60822,286.5011 125.61618,286.44942 125.61618,293.97512 C 125.61618,299.43873 125.3803,302.7567 111.08295,300.0447 C 98.73861,297.70316 96.98876,301.48509 99.03566,306.16396 C 101.51949,311.84158 103.63715,307.50255 112.42153,307.50255 C 115.67239,307.50255 125.06823,310.88387 124.27759,314.19548 C 123.35619,318.05475 120.73264,320.40538 113.95135,316.4902 C 106.00489,311.90231 104.39001,322.03578 102.28652,321.84455 C 100.18303,321.65332 96.74094,321.65332 96.74094,321.4621 z "
     style="fill:#f6f1df;fill-opacity:1;fill-rule:evenodd;stroke:#000000;stroke-width:3;stroke-linecap:butt;stroke-linejoin:miter;stroke-opacity:1"
     id="path1806" />
  <path
     d="M 138.23714,273.65542 C 138.23714,273.65542 136.5161,264.66776 139.3845,259.12219 C 142.2529,253.57661 147.79848,249.36962 147.79848,249.36962 C 147.79848,249.36962 149.71074,255.87134 150.09319,257.0187 C 150.47565,258.16606 138.23714,273.84665 138.23714,273.65542 z "
     style="fill:#fefefe;fill-opacity:1;fill-rule:evenodd;stroke:none"
     id="path1810" />
  <path
     d="M 149.90197,283.21675 C 149.90197,283.21675 151.03694,268.09978 155.02505,258.80468 C 156.31206,255.80503 158.73986,255.24609 160.41944,254.03306 C 160.41944,254.03306 164.4352,266.3888 164.4352,266.3888 L 149.90197,283.21675 z "
     style="fill:#fefefe;fill-opacity:1;fill-rule:evenodd;stroke:none"
     id="path1812" />
  <path
     d="M 136.02372,298.02991 C 136.02372,296.63736 140.50596,296.62685 142.53624,297.05996 C 143.44798,299.82827 142.25911,310.22357 143.64475,317.15178 C 145.03039,324.08 145.03039,327.40554 145.03039,327.40554 C 141.01203,327.82124 136.71654,330.18689 136.71654,323.11005 C 136.71654,315.74525 137.96361,317.29035 137.96361,313.54911 C 137.96361,310.08224 135.48338,306.67526 136.02372,298.02991 z "
     style="fill:#fefefe;fill-opacity:1;fill-rule:evenodd;stroke:none"
     id="path1814" />
  <path
     d="M 86.69483,306.89803 C 86.69483,306.89803 92.51454,319.78451 92.79166,321.58584 C 93.06879,323.38718 93.34956,329.06831 89.88181,329.06831 C 85.70414,329.06831 86.55627,328.6567 86.55627,319.23025 C 86.55627,311.88111 86.69483,306.89803 86.69483,306.89803 z "
     style="fill:#fefefe;fill-opacity:1;fill-rule:evenodd;stroke:none"
     id="path1816" />
  <path
     d="M 160.75039,246.38499 C 163.74693,248.71563 165.57815,261.05984 166.24404,260.56042 C 166.90994,260.061 168.24173,252.71933 168.24173,246.05204 C 168.24173,239.72383 168.07526,244.55377 160.75039,246.38499 z "
     style="fill:#fefefe;fill-opacity:1;fill-rule:evenodd;stroke:none"
     id="path1818" />
  <path
     d="M 131.9831,173.71793 L 153.2918,208.39685"
     style="fill:none;stroke:#000000;stroke-width:3.5;stroke-linecap:round;stroke-linejoin:miter;stroke-miterlimit:4;stroke-dasharray:none;stroke-opacity:1"
     id="path4441" />
  <path
     d="M 92.18649,224.83129 C 109.65137,229.35923 134.13308,242.71808 137.69074,241.10096 C 137.69074,241.10096 158.43269,222.7698 160.34873,184.66451"
     style="fill:none;stroke:#000000;stroke-width:3;stroke-linecap:butt;stroke-linejoin:miter;stroke-opacity:1"
     id="path6193" />
  <path
     d="M 95.222476,226.60187 C 95.222476,226.60187 71.046821,234.00258 69.566679,238.93639 C 68.086537,243.87019 67.099775,256.20471 81.901197,261.13852 C 96.702618,266.07233 99.169522,266.07232 99.169522,266.07232"
     style="fill:none;stroke:#000000;stroke-width:1px;stroke-linecap:butt;stroke-linejoin:miter;stroke-opacity:1"
     id="path3543" />
</svg>

<!-- Credit: "Villain" by JJ
     https://commons.wikimedia.org/wiki/File:Villainc.svg -->

<svg xmlns="http://www.w3.org/2000/svg" width="253" height="346"><rect width="253" height="346" fill="#ad1210"/><path d="M253.07 162.915c0 67.9-55.044 122.944-122.944 122.944s-122.944-55.044-122.944-122.944 55.044-122.944 122.944-122.944 122.944 55.044 122.944 122.944z" color="#000" fill="#ce302f" fill-rule="evenodd" overflow="visible"/><path d="M226.709 345.564v-22.916c0-4.384 3.41-1.948 5.358-5.845 1.948-3.897 12.177-57.476-4.871-84.752-17.048-27.277-36.531-31.173-59.911-24.354-23.38 6.819-46.76 67.704-46.76 67.704s-30.686 11.203-37.018 20.457c-6.332 9.255-15.038 24.986-6.962 33.062 7.609 7.609 10.431 2.007 10.431 2.007 1.55-.172 2.145 1.09 3.522 1.09 2.095 0 2.263-.947 4.699-.947 2.435 0 .974 14.493.974 14.493" fill-rule="evenodd" stroke="#000"/><path d="M156.023 147.483s4.414-11.787 14.64-11.787c10.225 0 12.855 14.65 12.916 22.146.053 6.996-3.229 19.294-17.222 19.294" fill="#f6f2e0" fill-rule="evenodd" stroke="#000" stroke-width="3"/><path d="M96.325 213.448l-.666 11.32 41.286 17.313s17.399-10.053 22.64-54.604c1.332-11.32-30.607-20.446-30.607-17.117 0 20.686-12.676 41.755-32.653 43.087z" fill="#fff" fill-rule="evenodd"/><path d="M99.084 148.613l-12.497 5.827-1.173 30.299 9.903 9.619s.538 15.607-4.305 18.836c-4.844 3.229 25.999 4.253 31.753-17.222 5.734-21.399 9.291-26.798 17.922-25.722 3.888.485-.436-5.156 18.109 9.239 4.506 27.922-17.733 62.229-21.5 62.229-6.458-1.076-43.265-18.112-43.265-18.112-2.622 3.933-4.13 5.066-15.138 8.073-16.312 4.456-11.023 20.265-4.565 25.108 6.458 4.844 18.836 10.225 27.447 7.535 8.611-2.691 45.745-19.913 52.204-19.913 6.458 0 11.302-.183 13.993-4.844 1.605-2.78-4.063-16.302-2.234-60.842.625-15.056-14.45-32.802-14.988-52.714-.408-15.102-65.12-3.767-65.12-3.767l13.455 26.371z" fill="#f4f1de" fill-rule="evenodd" stroke="#000" stroke-width="3"/><path d="M96.437 204.033c0-.689 11.28-19.489 19.398-28.079 6.724-7.113-4.332-.239-4.332-.239l-14.722 18.312-.344 10.006z" fill="#d0caa6" fill-rule="evenodd"/><path d="M135.902 132.485s11.826 3.752 8.955 14.466c-1.609 6.005-6.544 13.777-18.254 13.088-10.927-.643 11.71-4.133 9.299-27.554z" fill="#d1caa9" fill-rule="evenodd"/><path d="M88.372 127.973s58.167 3.563 60.234 2.186c2.067-1.378-.305-5.63-.305-5.63l-61.651-2.411 1.722 5.855z" fill="#d0cbad" fill-rule="evenodd"/><path d="M45.504 111.401s.556-8.324 1.799-8.738c1.542-.514 29.556 13.365 45.491 14.393-5.654-13.879-7.71-65.023 7.967-107.944 27.666 3.489 58.716 13.505 93.15 20.436 1.073.216 3.226 2.582 1.48 3.733-6.765 12.029-42.812 35.983-43.742 84.13 15.583-1.527 29.161-9.193 32.579-9.302.683-.022 1.831 1.15 1.053 2.472-5.654 11.051-5.349 13.097-5.349 13.097-.807.942-1.298 1.38-2.223 1.437-12.679.789-106.334 5.93-132.206-13.713z" fill-rule="evenodd" stroke="#000"/><path d="M88.321 179.289c17.883-24.797 28.524-17.941 28.524-5.382-11.302 5.382-36.596 43.055-36.596 43.055-10.489-6.883-15.069-14.061-15.069-32.829-.538-28.524 35.52-34.444 35.52-34.444s-3.229-10.764-1.076-13.455" fill="#f4f1de" fill-rule="evenodd" stroke="#000" stroke-width="3" stroke-linecap="round" stroke-linejoin="round"/><path d="M125.8 187.862l16.594 42.413" stroke="#000" stroke-width="3.2" stroke-linecap="round" fill="none"/><path d="M119.535 203.493s-.128 26.258 1.204 29.587" stroke="#000" stroke-width="2.5" stroke-linecap="round" fill="none"/><path d="M107.566 212.676c.285 3.991-.379 13.614-.379 13.614" stroke="#000" stroke-width="2.5" stroke-linecap="round" fill="none"/><path d="M96.702 214.809c0 3.457-2.529 10.493-2.529 10.493" stroke="#000" stroke-width="4" fill="none"/><path d="M106.666 149.308s3.264 9.705 14.324 10.258c8.304.415 19.963-8.046 18.857-17.448-1.106-9.402-5.53-12.72-14.932-11.061" fill="#fff" fill-rule="evenodd" stroke="#000" stroke-width="3.4"/><path d="M116.306 166.373s27.644-16.435 56.509 19.375c22.37 27.751 42.768 8.71 42.768-1.398 0-15.349-25.616-17.99-25.616 5.165-3.767 3.229-7.646-19.878 14.42-19.878 16.75 0 16.981 18.391 10.945 28.845-5.747 9.954-28.071 23.075-48.975-4.662-27.985-37.135-49.446-18.776-49.446-18.776l-.605-8.672z" fill="#040100" fill-rule="evenodd" stroke="#000"/><path d="M66.579 201.076s-11.8 8.522-17.044 18.028c-3.83 6.941-17.514 17.558-29.172 5.9-11.04-11.04 5.572-35.728 19.667-24.911-2.504 1.918-10.936-3.873-16.389 5.572-3.379 5.852-4.594 19.011 6.883 19.011 15.097 0 10.489-19.339 34.089-36.055" fill="#010101" fill-rule="evenodd" stroke="#000"/><path d="M132.989 140.413c-2.502.151-3.708 3.056-2.126 4.459 2.194 1.945 4.102.228 4.416-.702.77-2.277.096-3.901-2.29-3.757z" fill-rule="evenodd"/><path d="M80.967 260.092c-2.067-2.755-5.855-10.676 3.961-16.704" stroke="#000" stroke-width="3" stroke-linecap="round" fill="none"/><path d="M159.322 125.941l-2.067 18.599-3.444 1.722-4.822-20.665 10.333.344z" fill-rule="evenodd"/><path d="M63.349 129.224c-3.075-5.327 23.02-19.491 27.37-3.255 3.694 13.785 3.617 20.224 13.496 20.637 10.239.428 20.321-22.387 22.387-22.043 2.067.344 4.133 3.444.344 6.544-3.789 3.1-13.524 20.4-24.454 18.943-10.333-1.378-15.808-26.665-24.123-27.736-11.123-1.434-13.477 9.584-15.021 6.91z" fill-rule="evenodd" stroke="#000"/><path d="M84.638 155.2s-12.903-6.929-3.942-17.562c8.96-10.633 8.96-5.496 8.96-5.496 2.987 8.124 10.155 17.204 10.155 17.204l-15.173 5.854z" fill="#fff" fill-rule="evenodd" stroke="#000" stroke-width="3"/><path d="M93.36 142.775c1.017-1.475 4.779 3.823 4.062 5.018-.597.717-10.513 2.031-4.062-5.018z" fill-rule="evenodd"/><path d="M166.901 166.477s10.475.676 10.813-10.813c.338-11.489-6.758-13.178-6.758-13.178s-9.461 2.365-6.758 8.11c2.703 5.744 7.096 6.42 6.082 10.137-1.014 3.717-2.703 6.082-3.379 5.744z" fill="#d1caac" fill-rule="evenodd"/><path d="M164.415 168.012s11.055-6.955 2.363-14.017c-8.611-6.996 2.808-13.993 7.652-10.764" stroke="#000" stroke-width="3" stroke-linecap="round" fill="none"/><path d="M125.999 269.257s8.266 2.488 9.37 4.972c3.06 6.884-2.103 15.489-2.295 19.505-.191 4.016 4.398 23.903.382 24.095-4.016.191-7.84 2.486-8.223-3.251-.382-5.737-29.831.382-29.831.382l-8.605-38.476s24.286-10.861 39.201-7.228z" fill="#f5f2de" fill-rule="evenodd" stroke="#000" stroke-width="3"/><path d="M96.741 321.462s-14.916-29.831-17.593-36.142c-2.677-6.31 21.727-17.784 30.788-17.784 16.612 0 17.21-.652 17.21 7.84 0 10.904-9.212-1.263-26.772 3.442-10.595 2.839-11.041 2.088-8.988 9.753 3.304 12.329 6.232 2.724 16.445.765 14.776-2.835 17.784-2.887 17.784 4.639 0 5.464-.236 8.782-14.533 6.07-12.344-2.342-14.094 1.44-12.047 6.119 2.484 5.678 4.601 1.339 13.386 1.339 3.251 0 12.647 3.381 11.856 6.693-.921 3.859-3.545 6.21-10.326 2.295-7.946-4.588-9.561 5.546-11.665 5.354-2.103-.191-5.546-.191-5.546-.382z" fill="#f6f1df" fill-rule="evenodd" stroke="#000" stroke-width="3"/><path d="M138.237 273.655s-1.721-8.988 1.147-14.533c2.868-5.546 8.414-9.753 8.414-9.753s1.912 6.502 2.295 7.649c.382 1.147-11.856 16.828-11.856 16.637z" fill="#fefefe" fill-rule="evenodd"/><path d="M149.902 283.217s1.135-15.117 5.123-24.412c1.287-3 3.715-3.559 5.394-4.772l4.016 12.356-14.533 16.828z" fill="#fefefe" fill-rule="evenodd"/><path d="M136.024 298.03c0-1.393 4.482-1.403 6.513-.97.912 2.768-.277 13.164 1.109 20.092 1.386 6.928 1.386 10.254 1.386 10.254-4.018.416-8.314 2.781-8.314-4.295 0-7.365 1.247-5.82 1.247-9.561 0-3.467-2.48-6.874-1.94-15.519z" fill="#fefefe" fill-rule="evenodd"/><path d="M86.695 306.898s5.82 12.886 6.097 14.688c.277 1.801.558 7.482-2.91 7.482-4.178 0-3.326-.412-3.326-9.838 0-7.349.139-12.332.139-12.332z" fill="#fefefe" fill-rule="evenodd"/><path d="M160.75 246.385c2.997 2.331 4.828 14.675 5.494 14.175.666-.499 1.998-7.841 1.998-14.508 0-6.328-.166-1.498-7.491.333z" fill="#fefefe" fill-rule="evenodd"/><path d="M131.983 173.718l21.309 34.679" stroke="#000" stroke-width="3.5" stroke-linecap="round" fill="none"/><path d="M92.186 224.831c17.465 4.528 41.947 17.887 45.504 16.27 0 0 20.742-18.331 22.658-56.436" stroke="#000" stroke-width="3" fill="none"/><path d="M95.222 226.602s-24.176 7.401-25.656 12.335c-1.48 4.934-2.467 17.268 12.335 22.202 14.801 4.934 17.268 4.934 17.268 4.934" stroke="#000" fill="none"/></svg>
